dist/assets/images/instIco.svg

<svg width="20" height="20" viewBox="0 0 20 20" fill="none" xmlns="http://www.w3.org/2000/svg">
<path fill-rule="evenodd" clip-rule="evenodd" d="M18.9415 6.2857C18.9811 6.9733 19 8.2117 19 10C19 11.7892 18.9811 13.0276 18.9415 13.7152C18.8632 15.3406 18.379 16.5979 17.4889 17.4889C16.5979 18.3799 15.3406 18.8641 13.7152 18.9424C13.0276 18.9802 11.7901 19.0009 10 19.0009C8.2117 19.0009 6.9733 18.9802 6.2857 18.9424C4.6603 18.8641 3.403 18.3799 2.512 17.4889C1.621 16.5979 1.1368 15.3406 1.0585 13.7152C1.0198 13.0276 1 11.7892 1 10C1 8.2117 1.0198 6.9733 1.0585 6.2857C1.1368 4.6603 1.621 3.403 2.512 2.512C3.403 1.621 4.6603 1.1368 6.2857 1.0585C6.9733 1.0198 8.2117 1 10 1C11.7901 1 13.0276 1.0198 13.7152 1.0585C15.3406 1.1368 16.5979 1.621 17.4889 2.512C18.379 3.403 18.8632 4.6603 18.9415 6.2857ZM15.5662 4.43309C15.7768 4.64459 15.883 4.89839 15.883 5.19539C15.883 5.49239 15.7768 5.74619 15.5662 5.95679C15.3556 6.16829 15.1009 6.27359 14.8048 6.27359C14.5078 6.27359 14.254 6.16829 14.0434 5.95679C13.8319 5.74619 13.7266 5.49239 13.7266 5.19539C13.7266 4.89839 13.8319 4.64459 14.0434 4.43309C14.254 4.22249 14.5078 4.11719 14.8048 4.11719C15.1009 4.11719 15.3556 4.22249 15.5662 4.43309ZM13.2695 6.73103C14.1677 7.62923 14.6168 8.71913 14.6168 9.99983C14.6168 11.2814 14.1677 12.3713 13.2695 13.2704C12.3713 14.1686 11.2814 14.6177 9.99983 14.6177C8.71913 14.6177 7.62923 14.1686 6.73103 13.2704C5.83283 12.3713 5.38283 11.2814 5.38283 9.99983C5.38283 8.71913 5.83283 7.62923 6.73103 6.73103C7.62923 5.83283 8.71913 5.38283 9.99983 5.38283C11.2814 5.38283 12.3713 5.83283 13.2695 6.73103ZM12.121 12.121C12.7069 11.5351 12.9994 10.8277 12.9994 9.99973C12.9994 9.17263 12.7069 8.46523 12.121 7.87933C11.5351 7.29343 10.8277 7.00003 9.99973 7.00003C9.17263 7.00003 8.46523 7.29343 7.87843 7.87933C7.29343 8.46523 7.00003 9.17263 7.00003 9.99973C7.00003 10.8277 7.29343 11.5351 7.87843 12.121C8.46523 12.7078 9.17263 13.0003 9.99973 13.0003C10.8277 13.0003 11.5351 12.7078 12.121 12.121Z" fill="#15112B"/>
</svg>

<svg width="20" height="20" fill="none" xmlns="http://www.w3.org/2000/svg"><path fill-rule="evenodd" clip-rule="evenodd" d="M18.942 6.286c.04.687.058 1.926.058 3.714 0 1.79-.019 3.028-.058 3.715-.079 1.626-.563 2.883-1.453 3.774-.891.89-2.148 1.375-3.774 1.453-.687.038-1.925.059-3.715.059-1.788 0-3.027-.02-3.714-.059-1.626-.078-2.883-.562-3.774-1.453s-1.375-2.148-1.454-3.774C1.02 13.028 1 11.79 1 10c0-1.788.02-3.027.058-3.714.079-1.626.563-2.883 1.454-3.774S4.66 1.137 6.286 1.058C6.973 1.02 8.212 1 10 1c1.79 0 3.028.02 3.715.058 1.626.079 2.883.563 3.774 1.454.89.891 1.374 2.148 1.453 3.774zm-3.376-1.853c.21.212.317.465.317.762s-.106.551-.317.762c-.21.211-.465.317-.761.317a1.04 1.04 0 01-.762-.317 1.035 1.035 0 01-.316-.762c0-.297.105-.55.316-.762.211-.21.465-.316.762-.316.296 0 .55.105.761.316zM13.27 6.731c.898.898 1.347 1.988 1.347 3.269 0 1.281-.45 2.371-1.348 3.27-.898.899-1.988 1.348-3.27 1.348-1.28 0-2.37-.45-3.268-1.348-.898-.899-1.348-1.989-1.348-3.27 0-1.28.45-2.37 1.348-3.269.898-.898 1.988-1.348 3.269-1.348 1.281 0 2.371.45 3.27 1.348zm-1.149 5.39A2.89 2.89 0 0012.999 10a2.89 2.89 0 00-.878-2.12A2.891 2.891 0 0010 7c-.827 0-1.535.293-2.122.88A2.894 2.894 0 007 10c0 .828.293 1.535.878 2.121a2.89 2.89 0 002.122.88c.828 0 1.535-.293 2.121-.88z" fill="#15112B"/></svg>
